X: 212
T: Miss Sutton's Favorite
C: William Shepherd (17??-1812)
R: jig
Q: "Slow"
B: William Shepherd "2nd Collection" 1800 p.21 #2
F: http://imslp.org/wiki/File:PMLP73094-Shepherd_Collections_HMT.pdf
Z: 2012 John Chambers <jc:trillian.mit.edu>
M: 6/8
L: 1/8
K: Am
E |\
A>BTc B>cTd | {d}c>Ac {c}B2E | A>BTc B.e/.d/.c/.B/ | c>AA A2E |\
.A(cA) .B(dB) | .c(eA) {c}TB2E |Tc>ea TB>de | Tc>AA A2 :|
B |\
Tc>dc e>cg | e>ce d>BG | Tc>dc e>cg | e>cg Tg2a |\
Tc>dc e>cg | e>ce d>BG | e>cA B>de | c>AA A2 ||
B |\
Tc>dc e>cg | e>ce d>BG | Tc>dc e>cg | e>cg Tg2a |\
g>eg fdf | e>ce dBG | Tc>ea ^G>Be | Tc>AA A2 |]
